; generated by PrusaSlicer 2.7.2+win64 on 2025-05-07 at 08:32:34 UTC


;
;
; 

; external perimeters extrusion width = 0.45mm
; perimeters extrusion width = 0.45mm
; infill extrusion width = 0.45mm
; solid infill extrusion width = 0.45mm
; top infill extrusion width = 0.40mm
; first layer extrusion width = 0.42mm

; external perimeters extrusion width = 0.45mm
; perimeters extrusion width = 0.45mm
; infill extrusion width = 0.45mm
; solid infill extrusion width = 0.45mm
; top infill extrusion width = 0.40mm
; first layer extrusion width = 0.42mm

; external perimeters extrusion width = 0.45mm
; perimeters extrusion width = 0.45mm
; infill extrusion width = 0.45mm
; solid infill extrusion width = 0.45mm
; top infill extrusion width = 0.40mm
; first layer extrusion width = 0.42mm

M73 P0 R149
M73 Q0 S150
M201 X1000 Y1000 Z200 E5000 ; sets maximum accelerations, mm/sec^2
M203 X200 Y200 Z12 E120 ; sets maximum feedrates, mm / sec
M204 S1250 T1250 ; sets acceleration (S) and retract acceleration (R), mm/sec^2
M205 X8.00 Y8.00 Z0.40 E4.50 ; sets the jerk limits, mm/sec
M205 S0 T0 ; sets the minimum extruding and travel feed rate, mm/sec

; printing object Deckel.stl id:1 copy 0
; stop printing object Deckel.stl id:1 copy 0
; printing object Unterseite.stl id:2 copy 0
; stop printing object Unterseite.stl id:2 copy 0
; printing object Taster.stl id:0 copy 0
; stop printing object Taster.stl id:0 copy 0

;TYPE:Custom
M862.3 P "MK3S" ; printer model check
M862.1 P0.4 ; nozzle diameter check
M115 U3.13.2 ; tell printer latest fw version
G90 ; use absolute coordinates
M83 ; extruder relative mode
M104 S215 ; set extruder temp
M140 S60 ; set bed temp
M190 S60 ; wait for bed temp
M109 S215 ; wait for extruder temp
G28 W ; home all without mesh bed level
G80 X62.8547 Y60.5731 W115.635 H87.1316 ; mesh bed levelling

G1 Z0.2 F720
G1 Y-3 F1000 ; go outside print area
G92 E0
G1 X60 E9 F1000 ; intro line
G1 X100 E12.5 F1000 ; intro line

G92 E0
M221 S95

; Don't change E values below. Excessive value can damage the printer.
M907 E430 ; set extruder motor current
G21 ; set units to millimeters
G90 ; use absolute coordinates
M83 ; use relative distances for extrusion
M900 K0.05 ; Filament gcode LA 1.5
M900 K30 ; Filament gcode LA 1.0
M107
;LAYER_CHANGE
;Z:0.2
;HEIGHT:0.2
G1 E-.8 F2100
G1 Z.6 F720
G1 X63.435 Y61.832 F10800
G1 Z.2 F720
G1 E.8 F2100
M204 S800
;TYPE:Skirt/Brim
;WIDTH:0.42
G1 F1200
G1 X64.481 Y60.955 E.0428
G1 X65.42 Y60.762 E.03006
G1 X113.649 Y60.765 E1.51219
G1 X176.052 Y64.143 E1.95947
G1 X177.336 Y64.604 E.04278
M73 P0 R148
G1 X178.155 Y65.696 E.0428
G1 X178.301 Y66.516 E.02611
G1 X178.301 Y124.307 E1.812
G1 X177.909 Y125.614 E.04278
G1 X177.094 Y126.377 E.035
G1 X140.242 Y147.208 E1.32729
G1 X139.073 Y147.516 E.0379
G1 X105.655 Y147.516 E1.0478
G1 X104.441 Y147.183 E.03947
G1 X64.206 Y123.282 E1.46734
G1 X63.283 Y122.278 E.04276
G1 X63.043 Y121.239 E.03343
G1 X63.043 Y63.139 E1.82168
G1 X63.418 Y61.889 E.04092
M204 S1000
; printing object Unterseite.stl id:2 copy 0
;WIPE_START
G1 F8640
G1 X63.435 Y61.832 E-.01373
G1 X64.481 Y60.955 E-.31518
G1 X65.42 Y60.762 E-.22135
G1 X66.502 Y60.762 E-.24974
;WIPE_END
G1 Z.6 F720
G1 X112.647 Y120.452 F10800
G1 Z.2 F720
G1 E.8 F2100
M204 S800
;TYPE:Perimeter
;WIDTH:0.419999
G1 F1200
G1 X66.207 Y120.452 E1.45609
G1 X66.207 Y63.926 E1.77233
G1 X112.733 Y63.926 E1.45879
G1 X112.733 Y87.189 E.72939
M73 Q0 S149
G1 X112.733 Y110.831 E.74128
G1 X112.662 Y110.887 E.00284
G1 X112.647 Y111.017 E.0041
G1 X112.647 Y120.392 E.29395
M204 S1000
G1 X112.647 Y120.392 F10800
G1 X113.024 Y120.829
M204 S800
;TYPE:External perimeter
G1 F1200
G1 X65.83 Y120.829 E1.47973
G1 X65.83 Y63.549 E1.79597
G1 X113.11 Y63.549 E1.48243
G1 X113.11 Y87.189 E.74121
G1 X113.11 Y110.909 E.74372
G1 X113.024 Y111.017 E.00433
G1 X113.024 Y120.769 E.30577
M204 S1000
;WIPE_START
G1 F8640
G1 X113.024 Y120.829 E-.01385
G1 X109.619 Y120.829 E-.78615
;WIPE_END
G1 Z.6 F720
G1 X111.801 Y64.095 F10800
G1 Z.2 F720
G1 E.8 F2100
M204 S800
;TYPE:Solid infill
;WIDTH:0.420221
G1 F1200
G1 X112.394 Y64.689 E.02633
G1 X112.394 Y65.222 E.01672
G1 X111.437 Y64.265 E.04246
G1 X110.903 Y64.265 E.01675
G1 X112.394 Y65.756 E.06615
G1 X112.394 Y66.289 E.01672
G1 X110.37 Y64.265 E.0898
G1 X109.836 Y64.265 E.01675
G1 X112.394 Y66.823 E.11349
G1 X112.394 Y67.356 E.01672
G1 X109.303 Y64.265 E.13714
G1 X108.769 Y64.265 E.01675
G1 X112.394 Y67.89 E.16083
G1 X112.394 Y68.424 E.01675
G1 X108.235 Y64.265 E.18453
G1 X107.702 Y64.265 E.01672
G1 X112.394 Y68.957 E.20817
G1 X112.394 Y69.491 E.01675
G1 X107.168 Y64.265 E.23187
G1 X106.635 Y64.265 E.01672
G1 X112.394 Y70.024 E.25551
G1 X112.394 Y70.558 E.01675
G1 X106.101 Y64.265 E.27921
G1 X105.568 Y64.265 E.01672
G1 X112.394 Y71.092 E.30288
G1 X112.394 Y71.625 E.01672
G1 X105.034 Y64.265 E.32655
G1 X104.5 Y64.265 E.01675
G1 X112.394 Y72.159 E.35024
G1 X112.394 Y72.692 E.01672
G1 X103.967 Y64.265 E.37389
G1 X103.433 Y64.265 E.01675
G1 X112.394 Y73.226 E.39758
G1 X112.394 Y73.759 E.01672
G1 X102.9 Y64.265 E.42123
G1 X102.366 Y64.265 E.01675
G1 X112.394 Y74.293 E.44492
G1 X112.394 Y74.827 E.01675
G1 X101.832 Y64.265 E.46861
G1 X101.299 Y64.265 E.01672
G1 X112.394 Y75.36 E.49226
G1 X112.394 Y75.894 E.01675
G1 X100.765 Y64.265 E.51595
G1 X100.232 Y64.265 E.01672
G1 X112.394 Y76.427 E.5396
G1 X112.394 Y76.961 E.01675
G1 X99.698 Y64.265 E.56329
G1 X99.165 Y64.265 E.01672
G1 X112.394 Y77.495 E.58696
G1 X112.394 Y78.028 E.01672
G1 X98.631 Y64.265 E.61063
G1 X98.097 Y64.265 E.01675
G1 X112.394 Y78.562 E.63433
G1 X112.394 Y79.095 E.01672
G1 X97.564 Y64.265 E.65797
G1 X97.03 Y64.265 E.01675
G1 X112.394 Y79.629 E.68167
G1 X112.394 Y80.162 E.01672
G1 X96.497 Y64.265 E.70531
G1 X95.963 Y64.265 E.01675
G1 X112.394 Y80.696 E.72901
G1 X112.394 Y81.23 E.01675
G1 X95.429 Y64.265 E.7527
G1 X94.896 Y64.265 E.01672
G1 X112.394 Y81.763 E.77635
G1 X112.394 Y82.297 E.01675
G1 X94.362 Y64.265 E.80004
G1 X93.829 Y64.265 E.01672
M73 P0 R147
G1 X112.394 Y82.83 E.82369
G1 X112.394 Y83.364 E.01675
G1 X93.295 Y64.265 E.84738
G1 X92.762 Y64.265 E.01672
G1 X112.394 Y83.898 E.87105
G1 X112.394 Y84.431 E.01672
G1 X92.228 Y64.265 E.89472
G1 X91.694 Y64.265 E.01675
G1 X112.394 Y84.965 E.91841
G1 X112.394 Y85.498 E.01672
G1 X91.161 Y64.265 E.94206
G1 X90.627 Y64.265 E.01675
G1 X112.394 Y86.032 E.96575
G1 X112.394 Y86.565 E.01672
G1 X90.094 Y64.265 E.9894
G1 X89.56 Y64.265 E.01675
G1 X112.394 Y87.099 E1.01309
G1 X112.394 Y87.633 E.01675
G1 X89.026 Y64.265 E1.03678
G1 X88.493 Y64.265 E.01672
G1 X112.394 Y88.166 E1.06043
G1 X112.394 Y88.7 E.01675
G1 X87.959 Y64.265 E1.08412
G1 X87.426 Y64.265 E.01672
M73 P1 R147
M73 Q1 S149
G1 X112.394 Y89.233 E1.10777
G1 X112.394 Y89.767 E.01675
M73 Q1 S148
G1 X86.892 Y64.265 E1.13147
G1 X86.359 Y64.265 E.01672
G1 X112.394 Y90.301 E1.15514
G1 X112.394 Y90.834 E.01672
G1 X85.825 Y64.265 E1.17881
G1 X85.291 Y64.265 E.01675
G1 X112.394 Y91.368 E1.2025
G1 X112.394 Y91.901 E.01672
G1 X84.758 Y64.265 E1.22615
G1 X84.224 Y64.265 E.01675
G1 X112.394 Y92.435 E1.24984
G1 X112.394 Y92.968 E.01672
G1 X83.691 Y64.265 E1.27349
G1 X83.157 Y64.265 E.01675
G1 X112.394 Y93.502 E1.29718
G1 X112.394 Y94.036 E.01675
G1 X82.623 Y64.265 E1.32087
G1 X82.09 Y64.265 E.01672
G1 X112.394 Y94.569 E1.34452
G1 X112.394 Y95.103 E.01675
G1 X81.556 Y64.265 E1.36821
G1 X81.023 Y64.265 E.01672
G1 X112.394 Y95.636 E1.39186
G1 X112.394 Y96.17 E.01675
G1 X80.489 Y64.265 E1.41555
G1 X79.956 Y64.265 E.01672
G1 X112.394 Y96.704 E1.43922
G1 X112.394 Y97.237 E.01672
G1 X79.422 Y64.265 E1.46289
G1 X78.888 Y64.265 E.01675
G1 X112.394 Y97.771 E1.48658
G1 X112.394 Y98.304 E.01672
G1 X78.355 Y64.265 E1.51023
G1 X77.821 Y64.265 E.01675
G1 X112.394 Y98.838 E1.53392
G1 X112.394 Y99.371 E.01672
G1 X77.288 Y64.265 E1.55757
G1 X76.754 Y64.265 E.01675
M73 P1 R146
G1 X112.394 Y99.905 E1.58127
G1 X112.394 Y100.439 E.01675
G1 X76.22 Y64.265 E1.60496
G1 X75.687 Y64.265 E.01672
G1 X112.394 Y100.972 E1.62861
G1 X112.394 Y101.506 E.01675
G1 X75.153 Y64.265 E1.6523
G1 X74.62 Y64.265 E.01672
G1 X112.394 Y102.039 E1.67595
G1 X112.394 Y102.573 E.01675
G1 X74.086 Y64.265 E1.69964
G1 X73.552 Y64.265 E.01675
G1 X112.394 Y103.107 E1.72333
G1 X112.394 Y103.64 E.01672
M73 Q1 S147
G1 X73.019 Y64.265 E1.74698
G1 X72.485 Y64.265 E.01675
G1 X112.394 Y104.174 E1.77067
G1 X112.394 Y104.707 E.01672
G1 X71.952 Y64.265 E1.79432
G1 X71.418 Y64.265 E.01675
G1 X112.394 Y105.241 E1.81801
G1 X112.394 Y105.775 E.01675
G1 X70.885 Y64.265 E1.84168
G1 X70.351 Y64.265 E.01675
G1 X112.394 Y106.308 E1.86535
G1 X112.394 Y106.842 E.01675
G1 X69.817 Y64.265 E1.88904
G1 X69.284 Y64.265 E.01672
G1 X112.394 Y107.375 E1.91269
G1 X112.394 Y107.909 E.01675
G1 X68.75 Y64.265 E1.93638
G1 X68.217 Y64.265 E.01672
G1 X112.394 Y108.442 E1.96003
G1 X112.394 Y108.976 E.01675
M73 P2 R146
M73 Q2 S147
G1 X67.683 Y64.265 E1.98372
G1 X67.149 Y64.265 E.01675
G1 X112.394 Y109.51 E2.00742
G1 X112.394 Y110.043 E.01672
G1 X66.616 Y64.265 E2.03106
G1 X66.547 Y64.265 E.00216
M73 P2 R145
G1 X66.547 Y64.73 E.01459
G1 X112.394 Y110.577 E2.03413
G1 X112.394 Y110.719 E.00445
G1 X112.336 Y110.765 E.00232
G1 X112.307 Y111.024 E.00818
G1 X66.547 Y65.263 E2.03029
G1 X66.547 Y65.797 E.01675
G1 X112.307 Y111.557 E2.03027
G1 X112.307 Y112.091 E.01675
G1 X66.547 Y66.33 E2.03029
G1 X66.547 Y66.864 E.01675
G1 X112.307 Y112.624 E2.03027
G1 X112.307 Y113.158 E.01675
G1 X66.547 Y67.398 E2.03027
G1 X66.547 Y67.931 E.01672
G1 X112.307 Y113.692 E2.03029
G1 X112.307 Y114.225 E.01672
M73 Q2 S146
G1 X66.547 Y68.465 E2.03027
G1 X66.547 Y68.998 E.01672
G1 X112.307 Y114.759 E2.03029
G1 X112.307 Y115.292 E.01672
G1 X66.547 Y69.532 E2.03027
G1 X66.547 Y70.065 E.01672
G1 X112.307 Y115.826 E2.03029
G1 X112.307 Y116.36 E.01675
G1 X66.547 Y70.599 E2.03029
G1 X66.547 Y71.133 E.01675
G1 X112.307 Y116.893 E2.03027
G1 X112.307 Y117.427 E.01675
G1 X66.547 Y71.666 E2.03029
G1 X66.547 Y72.2 E.01675
G1 X112.307 Y117.96 E2.03027
G1 X112.307 Y118.494 E.01675
G1 X66.547 Y72.733 E2.03029
G1 X66.547 Y73.267 E.01675
G1 X112.307 Y119.027 E2.03027
G1 X112.307 Y119.561 E.01675
G1 X66.547 Y73.801 E2.03027
G1 X66.547 Y74.334 E.01672
G1 X112.307 Y120.112 E2.03067
G1 X111.791 Y120.112 E.01619
M73 P2 R144
G1 X66.547 Y74.868 E2.00737
G1 X66.547 Y75.401 E.01672
G1 X111.258 Y120.112 E1.98372
G1 X110.724 Y120.112 E.01675
G1 X66.547 Y75.935 E1.96003
G1 X66.547 Y76.469 E.01675
G1 X110.191 Y120.112 E1.93636
G1 X109.657 Y120.112 E.01675
G1 X66.547 Y77.002 E1.91269
G1 X66.547 Y77.536 E.01675
M73 P3 R144
G1 X109.123 Y120.112 E1.889
G1 X108.59 Y120.112 E.01672
M73 Q3 S145
G1 X66.547 Y78.069 E1.86535
G1 X66.547 Y78.603 E.01675
G1 X108.056 Y120.112 E1.84166
G1 X107.523 Y120.112 E.01672
G1 X66.547 Y79.136 E1.81801
G1 X66.547 Y79.67 E.01675
G1 X106.989 Y120.112 E1.79432
G1 X106.455 Y120.112 E.01675
G1 X66.547 Y80.204 E1.77063
G1 X66.547 Y80.737 E.01672
G1 X105.922 Y120.112 E1.74698
G1 X105.388 Y120.112 E.01675
G1 X66.547 Y81.271 E1.72329
G1 X66.547 Y81.804 E.01672
G1 X104.855 Y120.112 E1.69964
G1 X104.321 Y120.112 E.01675
G1 X66.547 Y82.338 E1.67595
G1 X66.547 Y82.872 E.01675
G1 X103.788 Y120.112 E1.65228
G1 X103.254 Y120.112 E.01675
G1 X66.547 Y83.405 E1.62861
G1 X66.547 Y83.939 E.01675
G1 X102.72 Y120.112 E1.60491
G1 X102.187 Y120.112 E.01672
G1 X66.547 Y84.472 E1.58127
G1 X66.547 Y85.006 E.01675
G1 X101.653 Y120.112 E1.55757
G1 X101.12 Y120.112 E.01672
M73 P3 R143
G1 X66.547 Y85.539 E1.53392
G1 X66.547 Y86.073 E.01675
G1 X100.586 Y120.112 E1.51023
G1 X100.052 Y120.112 E.01675
G1 X66.547 Y86.607 E1.48654
G1 X66.547 Y87.14 E.01672
G1 X99.519 Y120.112 E1.46289
G1 X98.985 Y120.112 E.01675
G1 X66.547 Y87.674 E1.4392
G1 X66.547 Y88.207 E.01672
G1 X98.452 Y120.112 E1.41555
G1 X97.918 Y120.112 E.01675
G1 X66.547 Y88.741 E1.39186
G1 X66.547 Y89.275 E.01675
G1 X97.385 Y120.112 E1.36819
G1 X96.851 Y120.112 E.01675
G1 X66.547 Y89.808 E1.34452
G1 X66.547 Y90.342 E.01675
M73 Q3 S144
G1 X96.317 Y120.112 E1.32083
G1 X95.784 Y120.112 E.01672
G1 X66.547 Y90.875 E1.29718
G1 X66.547 Y91.409 E.01675
G1 X95.25 Y120.112 E1.27349
G1 X94.717 Y120.112 E.01672
G1 X66.547 Y91.942 E1.24984
G1 X66.547 Y92.476 E.01675
G1 X94.183 Y120.112 E1.22615
G1 X93.649 Y120.112 E.01675
G1 X66.547 Y93.01 E1.20245
G1 X66.547 Y93.543 E.01672
G1 X93.116 Y120.112 E1.17881
G1 X92.582 Y120.112 E.01675
G1 X66.547 Y94.077 E1.15511
G1 X66.547 Y94.61 E.01672
G1 X92.049 Y120.112 E1.13147
G1 X91.515 Y120.112 E.01675
G1 X66.547 Y95.144 E1.10777
G1 X66.547 Y95.678 E.01675
G1 X90.982 Y120.112 E1.0841
G1 X90.448 Y120.112 E.01675
G1 X66.547 Y96.211 E1.06043
G1 X66.547 Y96.745 E.01675
G1 X89.914 Y120.112 E1.03674
G1 X89.381 Y120.112 E.01672
G1 X66.547 Y97.278 E1.01309
G1 X66.547 Y97.812 E.01675
M73 P4 R143
G1 X88.847 Y120.112 E.9894
G1 X88.314 Y120.112 E.01672
M73 Q4 S144
G1 X66.547 Y98.345 E.96575
G1 X66.547 Y98.879 E.01675
G1 X87.78 Y120.112 E.94206
G1 X87.246 Y120.112 E.01675
G1 X66.547 Y99.413 E.91837
G1 X66.547 Y99.946 E.01672
G1 X86.713 Y120.112 E.89472
G1 X86.179 Y120.112 E.01675
G1 X66.547 Y100.48 E.87103
G1 X66.547 Y101.013 E.01672
G1 X85.646 Y120.112 E.84738
G1 X85.112 Y120.112 E.01675
G1 X66.547 Y101.547 E.82369
G1 X66.547 Y102.081 E.01675
G1 X84.579 Y120.112 E.80002
M73 P4 R142
G1 X84.045 Y120.112 E.01675
G1 X66.547 Y102.614 E.77635
G1 X66.547 Y103.148 E.01675
G1 X83.511 Y120.112 E.75265
G1 X82.978 Y120.112 E.01672
G1 X66.547 Y103.681 E.72901
G1 X66.547 Y104.215 E.01675
G1 X82.444 Y120.112 E.70531
G1 X81.911 Y120.112 E.01672
G1 X66.547 Y104.748 E.68167
G1 X66.547 Y105.282 E.01675
G1 X81.377 Y120.112 E.65797
G1 X80.843 Y120.112 E.01675
G1 X66.547 Y105.816 E.63428
G1 X66.547 Y106.349 E.01672
G1 X80.31 Y120.112 E.61063
G1 X79.776 Y120.112 E.01675
G1 X66.547 Y106.883 E.58694
G1 X66.547 Y107.416 E.01672
G1 X79.243 Y120.112 E.56329
G1 X78.709 Y120.112 E.01675
G1 X66.547 Y107.95 E.5396
G1 X66.547 Y108.484 E.01675
G1 X78.176 Y120.112 E.51593
G1 X77.642 Y120.112 E.01675
G1 X66.547 Y109.017 E.49226
G1 X66.547 Y109.551 E.01675
G1 X77.108 Y120.112 E.46857
G1 X76.575 Y120.112 E.01672
G1 X66.547 Y110.084 E.44492
G1 X66.547 Y110.618 E.01675
G1 X76.041 Y120.112 E.42123
G1 X75.508 Y120.112 E.01672
G1 X66.547 Y111.151 E.39758
G1 X66.547 Y111.685 E.01675
G1 X74.974 Y120.112 E.37389
G1 X74.44 Y120.112 E.01675
G1 X66.547 Y112.219 E.35019
G1 X66.547 Y112.752 E.01672
G1 X73.907 Y120.112 E.32655
G1 X73.373 Y120.112 E.01675
G1 X66.547 Y113.286 E.30285
G1 X66.547 Y113.819 E.01672
G1 X72.84 Y120.112 E.27921
G1 X72.306 Y120.112 E.01675
M73 Q4 S143
G1 X66.547 Y114.353 E.25551
G1 X66.547 Y114.887 E.01675
G1 X71.773 Y120.112 E.23184
G1 X71.239 Y120.112 E.01675
G1 X66.547 Y115.42 E.20817
G1 X66.547 Y115.954 E.01675
G1 X70.705 Y120.112 E.18448
G1 X70.172 Y120.112 E.01672
G1 X66.547 Y116.487 E.16083
G1 X66.547 Y117.021 E.01675
G1 X69.638 Y120.112 E.13714
G1 X69.105 Y120.112 E.01672
G1 X66.547 Y117.554 E.11349
G1 X66.547 Y118.088 E.01675
G1 X68.571 Y120.112 E.0898
G1 X68.037 Y120.112 E.01675
G1 X66.547 Y118.622 E.06611
G1 X66.547 Y119.155 E.01672
G1 X67.504 Y120.112 E.04246
G1 X66.97 Y120.112 E.01675
G1 X66.377 Y119.519 E.02631
M204 S1000
; stop printing object Unterseite.stl id:2 copy 0
; printing object Taster.stl id:0 copy 0
;WIPE_START
G1 F8640
G1 X66.97 Y120.112 E-.19364
G1 X67.504 Y120.112 E-.1233
G1 X66.547 Y119.155 E-.3125
G1 X66.547 Y118.622 E-.12307
G1 X66.692 Y118.767 E-.04749
;WIPE_END
G1 Z.6 F720
G1 X132.86 Y144.352 F10800
G1 Z.2 F720
G1 E.8 F2100
M204 S800
;TYPE:Perimeter
;WIDTH:0.419999
G1 F1200
G1 X132.86 Y138.926 E.17013
G1 X138.286 Y138.926 E.17013
G1 X138.286 Y141.639 E.08506
G1 X138.286 Y144.352 E.08506
G1 X132.92 Y144.352 E.16825
M204 S1000
G1 X132.92 Y144.352 F10800
G1 X132.483 Y144.729
M204 S800
;TYPE:External perimeter
G1 F1200
G1 X132.483 Y138.549 E.19377
G1 X138.663 Y138.549 E.19377
G1 X138.663 Y141.639 E.09688
G1 X138.663 Y144.729 E.09688
G1 X132.543 Y144.729 E.19189
M204 S1000
;WIPE_START
G1 F8640
G1 X132.483 Y144.729 E-.01385
G1 X132.483 Y141.324 E-.78615
;WIPE_END
G1 Z.6 F720
G1 X138.116 Y139.867 F10800
G1 Z.2 F720
G1 E.8 F2100
M204 S800
;TYPE:Solid infill
;WIDTH:0.424325
G1 F1200
G1 X137.514 Y139.265 E.027
